X:1
T:I Will Trust Him
T:I Will Trust Him
T:Alfred Henry Ackley
T:Alfred Henry Ackley, 1917
T:Public Domain Courtesy of the Cyber Hymnal™
T:Public Domain Courtesy of the Cyber Hymnal™
C:Alfred Henry Ackley
Z:Public Domain
Z:Courtesy of the Cyber Hymnal™
%%score ( 1 2 ) ( 3 4 )
L:1/8
Q:1/4=100
M:4/4
K:Eb
V:1 treble 
V:2 treble 
V:3 bass 
V:4 bass 
V:1
 [EG]>[FA] | [GB]2 [GB]2 [^F=A]>[GB] [_Ac]>[GB] | [Ge]2 [GB]4 [Gc]>[Ge] | %3
w: 1.~Though I|walk the shore that rims the|o- cean, Though I|
w: 2.~If He|bids me walk with- in the|val- ley Where the|
w: 3.~If to|lands un- known He bids me|jour- ney, Or to|
w: 4.~He has|built a house of ma- ny|man- sions, Where my|
 [Ad]2 [Ac]2 [DB]>[DF] [EG]>[FA] | [EG]6 [EG]>[FA] | [GB]2 [GB]2 [^F=A]>[GB] [_Ac]>[GB] | %6
w: face the storm up- on the|sea; In the|hands of love I rest se-|
w: dark- ness hides His bless- èd|face, He will|sure- ly keep my feet from|
w: lift the hea- vy load of|care; If I|bear the cross for Him who|
w: long- ing soul at last shall|rest; When I|rise com- plete in His per-|
 [Ge]2 [GB]4 [Gc]>[Ge] | [Fd]2 [DF]2 [Fd]>[Ec] [DB]>[C=A] | [DB]6 ||"^Refrain" [EB]>[EG] | %10
w: cure- ly, For I|know my Lord will care for|me.||
w: fall- ing, While my|soul is trust- ing in His|grace.|I will|
w: suf- fered, In His|glo- ry I shall have a|share.||
w: fect- ion, I shall|join the cho- rus of the|blest.||
 [FA]>[=EG] [FA]>[EG] [FA]>[EG] [FA]>[DF] | [EG]2 [GB]4 [GB]>[EG] | %12
w: ||
w: trust Him in the val- ley of the|sha- dow, I will|
w: ||
w: ||
 [FA]>[=EG] [FA]>[GB] [Ad]>[Ac] [GB]>[FA] | [EG]6 [EG]>[FA] | %14
w: ||
w: trust Him on the wild and storm- y|sea; I will|
w: ||
w: ||
 [GB]>[^F=A] [GB]>[FA] [GB]>[EG] [Ge]>[GB] | [Bd]2 [Ac]4 [EA]>[Ec] | %16
w: ||
w: trust Him an- y- where be- cause He|loves me, I will|
w: ||
w: ||
 [EB]>[Ec] [EB]>[EA] [EG]2 [DF]2 | E6 |] %18
w: ||
w: trust Him through e- ter- ni-|ty.|
w: ||
w: ||
V:2
 x2 | x8 | x8 | x8 | x8 | x8 | x8 | x8 | x6 || x2 | x8 | x8 | x8 | x8 | x8 | x8 | x8 | E6 |] %18
V:3
 [E,B,]>[E,B,] | [E,E]2 [E,E]2 [E,E]>[E,E] [E,B,]>[E,B,] | [E,B,]2 [E,E]4 [E,E]>[E,B,] | %3
w: ~ ~|~ ~ ~ ~ ~ ~|~ ~ ~ ~|
 [B,,B,]2 [B,,B,]2 [B,,F,]>[B,,B,] [B,,B,]>[B,,B,] | [E,B,]6 [E,B,]>[E,B,] | %5
w: ~ ~ ~ ~ ~ ~|~ ~ ~|
 [E,E]2 [E,E]2 [E,E]>[E,E] [E,B,]>[E,B,] | [E,B,]2 [E,E]4 [E,E]>[E,B,] | %7
w: ~ ~ ~ ~ ~ ~|~ ~ ~ ~|
 [F,B,]2 [F,B,]2 [F,=A,]>[F,A,] [F,B,]>F, | [B,,F,]6 || [E,G,]>[E,B,] | %10
w: ~ ~ ~ ~ ~ ~|~|~ ~|
 [B,,B,]>[B,,B,] [B,,B,]>[B,,B,] [B,,B,]>[B,,B,] [B,,B,]>[B,,B,] | [E,B,]2 [E,E]4 [E,E]>[E,B,] | %12
w: ~ ~ ~ ~ ~ ~ ~ ~|~ ~ ~ ~|
 [B,,B,]>[B,,B,] [B,,B,]>[B,,B,] [B,,B,]>[B,,B,] [C,B,]>[D,B,] | B,6 [E,B,]>[E,B,] | %14
w: ~ ~ ~ ~ ~ ~ ~ ~|~ the storm-|
 [E,E]>[E,E] [E,E]>[E,E] [E,E]>[E,B,] [E,B,]>[E,E] | [A,E]2 [A,E]4 [A,C]>A, | %16
w: y sea; * * * * * *||
 [G,B,]>A, [G,B,]>[A,C] B,2 (B,A,) | [E,G,]6 |] %18
w: ||
V:4
 x2 | x8 | x8 | x8 | x8 | x8 | x8 | x15/2 F,/ | x6 || x2 | x8 | x8 | x8 | E,E,G,B, E,2 x2 | x8 | %15
 x15/2 A,/ | x3/2 A,/ x3/2 B,2 B,,2 x/ | x6 |] %18

